libs/ui/packages/crypto-icons/src/svg/POWR.svg

<svg width="24" height="24" viewBox="0 0 24 24" fill="none">
<path fill-rule="evenodd" clip-rule="evenodd" d="M20.9958 11.9654C21.0034 11.9997 20.999 12.0356 20.9835 12.0671C20.9679 12.0986 20.9421 12.1238 20.9103 12.1387L20.8533 12.1657L19.1238 13.8997L19.7943 16.4084C19.8049 16.4479 19.7993 16.49 19.779 16.5254C19.7586 16.5608 19.725 16.5867 19.6856 16.5974L17.2788 17.2432L16.6151 19.7257C16.6047 19.7651 16.5791 19.7987 16.5439 19.8192C16.5088 19.8397 16.4669 19.8455 16.4276 19.8352L13.8851 19.1527L12.0866 20.9549C12.0723 20.9693 12.0554 20.9807 12.0367 20.9885C12.0181 20.9963 11.998 21.0003 11.9778 21.0003C11.9576 21.0003 11.9376 20.9963 11.9189 20.9885C11.9002 20.9807 11.8833 20.9693 11.8691 20.9549L10.0923 19.1737L7.63081 19.8352C7.61135 19.8404 7.59106 19.8417 7.5711 19.8391C7.55114 19.8364 7.5319 19.8299 7.51448 19.8197C7.49706 19.8096 7.4818 19.7962 7.46959 19.7802C7.45738 19.7642 7.44845 19.7459 7.44331 19.7264L6.77881 17.2439L4.37281 16.5974C4.35322 16.5922 4.33487 16.5832 4.31879 16.5709C4.30272 16.5585 4.28924 16.5431 4.27913 16.5256C4.26902 16.508 4.26249 16.4886 4.2599 16.4685C4.25731 16.4484 4.25873 16.428 4.26406 16.4084L4.91281 13.9807L3.04531 12.1079C3.01663 12.079 3.00055 12.0399 3.00055 11.9992C3.00055 11.9585 3.01663 11.9194 3.04531 11.8904L4.86106 10.0687L4.21231 7.6417C4.20178 7.60212 4.2074 7.55997 4.22793 7.52453C4.24846 7.48909 4.28223 7.46325 4.32181 7.4527L6.83806 6.7762L7.49356 4.3237C7.50411 4.28412 7.52995 4.25036 7.56539 4.22982C7.60083 4.20929 7.64297 4.20367 7.68256 4.2142L10.0631 4.85395L11.8691 3.04345C11.8984 3.01548 11.9373 2.99988 11.9778 2.99988C12.0183 2.99988 12.0573 3.01548 12.0866 3.04345L13.9143 4.87495L16.3758 4.21345C16.3954 4.20825 16.4157 4.20695 16.4358 4.20964C16.4558 4.21233 16.4752 4.21895 16.4927 4.22912C16.5101 4.2393 16.5255 4.25282 16.5377 4.26892C16.55 4.28502 16.5589 4.30338 16.5641 4.32295L16.5813 4.38745C16.5851 4.39714 16.5878 4.40719 16.5896 4.41745L17.2196 6.77545L19.7366 7.45195C19.8191 7.47445 19.8671 7.55845 19.8453 7.64095L19.1748 10.1489L20.8676 11.8462C20.8984 11.8506 20.9272 11.8643 20.9501 11.8855C20.973 11.9066 20.989 11.9343 20.9958 11.9647V11.9654ZM19.0316 13.5554L20.0411 12.5444L18.9033 13.0747L19.0316 13.5562V13.5554ZM19.3998 16.1257L18.8726 14.1517L17.8248 15.2017V15.2024L19.3998 16.1257ZM17.7423 15.5107L17.3711 16.8997L19.2498 16.3949L17.7423 15.5114V15.5107ZM16.3938 19.3627L16.9361 17.3354L15.4556 17.7329L16.3938 19.3627ZM14.5158 18.5189L14.1356 18.9007L15.6273 19.3012L14.5158 18.5189ZM12.1316 20.4734L13.5416 19.0597L12.1316 18.6809V20.4734ZM11.8241 18.7087L10.4358 19.0814L11.8233 20.4734V18.7087H11.8241ZM7.93231 19.4347L9.84181 18.9224L8.81881 17.8964L7.93231 19.4347ZM7.12231 17.3354L7.54606 18.9209L7.67356 17.4839L7.12231 17.3354ZM4.80481 16.3942L6.68731 16.8997L6.31231 15.4994L4.80481 16.3942ZM6.16006 15.2317L5.16406 14.2327L4.65856 16.1227L6.16006 15.2317ZM3.55006 12.1792L5.00506 13.6372L5.39431 12.1792H3.55006ZM5.11006 10.9979L4.95331 10.4129L3.72781 11.6414L5.11006 10.9979ZM4.60606 7.92145L5.11231 9.8167L6.12481 8.80195L4.60606 7.92145ZM6.35956 8.56645L6.74656 7.12045L4.75906 7.65445L6.34981 8.5762L6.35956 8.56645ZM7.68856 4.78645L7.18156 6.68395L8.56681 6.31195L7.68856 4.7872V4.78645ZM9.44506 5.47345L9.81181 5.10595L8.37481 4.7197L9.44506 5.47345ZM11.8241 3.52495L10.4066 4.9462L11.8241 5.3272V3.52495ZM12.1316 5.35495L13.5716 4.96795L12.1316 3.52495V5.35495ZM16.1786 4.58695L14.1656 5.12695L15.2441 6.2092L16.1786 4.58695ZM16.4058 6.55795L16.8768 6.68395L16.5146 5.3287L16.4058 6.55795ZM19.2933 7.65295L17.3118 7.12045L17.6943 8.55445L19.2926 7.6522L19.2933 7.65295ZM17.8496 8.8207L18.9236 9.89695L19.4538 7.9147L17.8496 8.8207ZM20.4311 11.8439L19.0833 10.4932L18.7218 11.8439H20.4311ZM18.6566 12.1522L18.8216 12.7709L20.1498 12.1522H18.6573H18.6566ZM18.4241 12.9562L18.5388 12.9037L18.4886 12.7162L18.4248 12.9562H18.4241ZM18.3206 13.3447L17.9831 14.6054L18.7803 13.8067L18.6198 13.2052L18.3206 13.3447ZM17.3898 15.6374L15.6776 17.3534L17.0276 16.9912L17.3898 15.6374ZM15.2396 17.3572L17.5488 15.0419L17.9568 13.5142L14.0696 15.3254L15.2396 17.3572ZM15.1736 17.8597L14.7371 18.2969L15.8951 19.1122L15.1736 17.8597ZM14.3553 18.0284L14.4813 18.1169L14.6486 17.9489L14.3553 18.0284ZM13.9676 18.1319L12.6236 18.4934L13.7928 18.8077L14.2608 18.3382L13.9683 18.1319H13.9676ZM11.4348 18.4934L9.26956 17.9114L10.1846 18.8294L11.4348 18.4934ZM8.01706 17.0924L8.00206 17.2522L8.23981 17.3159L8.01706 17.0924ZM7.73281 16.8074L6.70606 15.7799L7.03006 16.9927L7.70131 17.1727L7.73281 16.8089V16.8074ZM6.11206 14.7472L5.56906 12.7162L5.25556 13.8884L6.11206 14.7472ZM5.34331 11.8709L5.19031 11.3002L3.96556 11.8702H5.34331V11.8709ZM5.69131 11.0662L5.47381 11.1682L5.56906 11.5252L5.69131 11.0662ZM5.79556 10.6784L6.20056 9.16195L5.20456 10.1609L5.39281 10.8659L5.79556 10.6784ZM6.79456 8.12995L8.18881 6.7327L7.08931 7.0282L6.79456 8.1307V8.12995ZM8.80756 6.11245L9.22456 5.6947L8.11756 4.91545L8.80756 6.11245ZM9.67756 6.01345L9.48031 5.8747L9.21781 6.1372L9.67756 6.01345ZM10.0653 5.9092L11.4348 5.5417L10.1553 5.1982L9.70081 5.6527L10.0653 5.9092ZM12.6228 5.5417L14.7003 6.0997L13.8228 5.21995L12.6228 5.5417ZM16.0556 7.0222L16.0766 6.7882L15.7293 6.6952L16.0556 7.0222ZM16.3391 7.3072L17.3006 8.27095L16.9683 7.0282L16.3781 6.8692L16.3391 7.3072ZM17.8946 9.3022L18.4886 11.5252L18.8321 10.2419L17.8946 9.30295V9.3022ZM13.5641 14.4479L13.9151 15.0577L18.0611 13.1264L18.3213 12.1529H15.9101L15.7878 13.5284C15.7849 13.5608 15.7718 13.5913 15.7505 13.6158C15.7291 13.6402 15.7006 13.6573 15.669 13.6645C15.6374 13.6718 15.6043 13.6688 15.5744 13.6561C15.5446 13.6434 15.5195 13.6215 15.5028 13.5937L14.7543 12.3262L13.5641 14.4479ZM12.9761 15.4957L13.6353 15.1882L13.3886 14.7607L12.9761 15.4957ZM10.3616 15.2182L14.0268 17.7982L14.9891 17.5394L13.7891 15.4567L12.6731 15.9772C12.6434 15.9912 12.6101 15.9954 12.5779 15.9891C12.5458 15.9828 12.5165 15.9664 12.4943 15.9423C12.4721 15.9182 12.4582 15.8876 12.4546 15.855C12.451 15.8224 12.4579 15.7896 12.4743 15.7612L13.1741 14.5139L10.7516 14.5409L10.3616 15.2174V15.2182ZM10.2071 15.4859L9.02956 17.5289L12.0296 18.3344L13.6391 17.9017L10.2071 15.4859ZM10.3938 14.5447L9.42106 14.5559L10.1088 15.0397L10.3938 14.5447ZM8.45131 12.1792L8.05231 16.6927L8.75281 17.3939L9.95431 15.3074L8.85331 14.5334C8.82674 14.5146 8.8068 14.4878 8.79636 14.457C8.78591 14.4261 8.78548 14.3928 8.79513 14.3617C8.80478 14.3305 8.82401 14.3033 8.85009 14.2838C8.87616 14.2642 8.90774 14.2535 8.94031 14.2529L10.4283 14.2357L9.21331 12.1792H8.45206H8.45131ZM8.14381 12.1792H5.74381L6.54631 15.1829L7.76881 16.4077L8.14381 12.1792ZM9.03031 11.8709L8.55106 11.0594L8.47906 11.8709H9.03031ZM10.1178 9.00445L6.05581 10.8974L5.79556 11.8709H8.17081L8.28706 10.5554C8.29042 10.5234 8.30371 10.4932 8.32508 10.4691C8.34645 10.445 8.37483 10.4281 8.40623 10.421C8.43764 10.4138 8.47051 10.4166 8.50025 10.429C8.52998 10.4414 8.55509 10.4628 8.57206 10.4902L9.32431 11.7629L10.4996 9.6682L10.1171 9.00445H10.1178ZM9.96331 8.7367L8.74081 6.61495L6.63556 8.7262L6.15931 10.5089L9.96331 8.7367ZM13.7186 8.8582L10.0061 6.24445L9.03406 6.5062L10.2431 8.6062L11.4431 8.0467C11.4727 8.0327 11.506 8.02854 11.5382 8.03483C11.5703 8.04111 11.5997 8.0575 11.6219 8.08162C11.644 8.10574 11.6579 8.13631 11.6615 8.16889C11.6651 8.20146 11.6582 8.23433 11.6418 8.2627L10.9398 9.5137L13.3563 9.4867L13.7186 8.8582ZM13.8731 8.5897L15.0663 6.51745L12.0288 5.70145L10.3938 6.14095L13.8731 8.5897ZM13.7141 9.4822L14.5916 9.4732L13.9713 9.03595L13.7141 9.48295V9.4822ZM15.6011 12.1529H15.0086L15.5238 13.0244L15.6011 12.1529ZM10.6751 9.35545L11.1401 8.5282L10.3976 8.87395L10.6751 9.3562V9.35545ZM13.3473 14.2057L14.5728 12.0202L13.2641 9.8047L13.2603 9.79645L10.7651 9.8242L9.50506 12.0697L10.7838 14.2319L13.3323 14.2034C13.3376 14.2034 13.3421 14.2049 13.3473 14.2057ZM16.3038 7.7077L15.9371 11.8447H18.2561L17.4596 8.8672L16.3038 7.7077ZM15.6288 11.8447L16.0203 7.4227L15.3101 6.71095L14.1251 8.76745L15.1601 9.49495C15.1869 9.51369 15.2072 9.54049 15.2178 9.57148C15.2285 9.60248 15.229 9.63605 15.2193 9.66736C15.2096 9.69867 15.1902 9.72609 15.164 9.74565C15.1377 9.76522 15.1058 9.77591 15.0731 9.7762L13.6143 9.79195L14.8271 11.8447H15.6281H15.6288ZM16.1036 6.47695L16.2236 5.1247L15.5336 6.3232L16.1036 6.47695ZM7.97506 17.5649L7.85131 18.9584L8.56381 17.7224L7.97506 17.5649Z" fill="#05BCA9"/>
</svg>

<svg width="24" height="24" viewBox="0 0 24 24" fill="none"><path fill="#05bca9" fill-rule="evenodd" d="M20.996 11.965a.155.155 0 0 1-.086.174l-.057.027-1.73 1.734.671 2.508a.155.155 0 0 1-.108.19l-2.407.645-.664 2.483a.153.153 0 0 1-.187.11l-2.543-.683-1.798 1.802a.154.154 0 0 1-.218 0l-1.777-1.781-2.461.661a.15.15 0 0 1-.161-.055.2.2 0 0 1-.027-.054l-.664-2.482-2.406-.647a.154.154 0 0 1-.109-.189l.649-2.427-1.868-1.873a.154.154 0 0 1 0-.218l1.816-1.821-.649-2.427a.155.155 0 0 1 .11-.19l2.516-.676.656-2.452a.155.155 0 0 1 .189-.11l2.38.64 1.806-1.81a.157.157 0 0 1 .218 0l1.827 1.831 2.462-.662a.154.154 0 0 1 .188.11l.017.064.009.03.63 2.358 2.517.677c.082.022.13.106.108.189l-.67 2.508 1.693 1.697a.15.15 0 0 1 .128.119m-1.964 1.59 1.01-1.01-1.139.53.129.481m.368 2.57-.527-1.973-1.048 1.05zm-1.658-.614-.37 1.389 1.878-.505zm-1.348 3.852.542-2.028-1.48.398zm-1.878-.844-.38.382 1.491.4zm-2.384 1.954 1.41-1.413-1.41-.38zm-.308-1.764-1.388.372 1.387 1.392zm-3.892.726 1.91-.513-1.023-1.026zm-.81-2.1.424 1.586.128-1.437zm-2.317-.94 1.882.505-.375-1.4zm1.355-1.163-.996-1-.505 1.89zM3.55 12.18l1.455 1.458.39-1.458zm1.56-1.181-.157-.585-1.225 1.228zM4.606 7.92l.506 1.896 1.013-1.015zm1.754.645.387-1.446-1.988.534 1.59.922zm1.329-3.78-.507 1.898 1.385-.372zm1.756.687.367-.367-1.437-.386zm2.38-1.948-1.418 1.421 1.417.381zm.307 1.83 1.44-.387-1.44-1.443zm4.047-.768-2.013.54 1.078 1.082zm.227 1.971.47.126-.361-1.355zm2.887 1.095-1.981-.533.382 1.434zM17.85 8.82l1.074 1.076.53-1.982zm2.581 3.023-1.348-1.35-.361 1.35zm-1.774.308.165.619 1.328-.619zm-.233.804.115-.052-.05-.188zm-.103.389-.338 1.26.797-.798-.16-.602zm-.931 2.292-1.712 1.716 1.35-.362zm-2.15 1.72 2.309-2.315.408-1.528-3.887 1.811zm-.066.503-.437.437 1.158.815zm-.819.168.126.089.168-.168zm-.387.104-1.344.361 1.169.315.468-.47zm-2.533.361L9.27 17.91l.915.918zm-3.418-1.4-.015.16.238.063zm-.284-.286L6.706 15.78l.324 1.213.671.18.032-.364zm-1.62-2.06-.544-2.03-.313 1.171zm-.77-2.876-.153-.57-1.224.57zm.348-.805-.217.102.095.357zm.105-.388L6.2 9.162l-.996.999.188.705zm.999-2.548 1.394-1.397-1.1.295zm2.013-2.018.417-.417-1.107-.78zm.87-.099-.198-.138-.262.262zm.387-.104 1.37-.367-1.28-.344-.454.455zm2.558-.367L14.7 6.1l-.877-.88zm3.433 1.48.02-.234-.347-.093zm.283.285.962.964-.333-1.243-.59-.159zm1.556 1.995.594 2.223.343-1.283zm-4.33 5.146.35.61 4.146-1.932.26-.973h-2.41l-.123 1.375a.154.154 0 0 1-.285.066l-.749-1.268zm-.589 1.048.66-.308-.247-.427zm-2.614-.278 3.665 2.58.962-.259-1.2-2.082-1.116.52a.154.154 0 0 1-.199-.216l.7-1.247-2.422.027zm-.155.268L9.03 17.529l3 .805 1.61-.432zm.187-.941-.973.01.688.485zM8.45 12.179l-.399 4.514.7.7 1.202-2.086-1.1-.774a.154.154 0 0 1 .086-.28l1.488-.017-1.215-2.057zm-.307 0h-2.4l.802 3.004 1.223 1.225zm.886-.308-.479-.812-.072.812zm1.088-2.867-4.062 1.893-.26.974H8.17l.116-1.316a.154.154 0 0 1 .285-.065l.752 1.273L10.5 9.668zm-.155-.267L8.741 6.615 6.636 8.726l-.477 1.783zm3.756.121-3.713-2.614-.972.262 1.21 2.1 1.2-.56a.154.154 0 0 1 .198.217l-.702 1.25 2.416-.026zm.154-.268 1.193-2.073-3.037-.816-1.635.44zm-.159.892.878-.009-.62-.437zm1.887 2.67h-.592l.515.872zm-4.926-2.797.465-.827-.742.346zm2.672 4.85 1.226-2.185-1.309-2.215-.004-.009-2.495.028-1.26 2.246 1.279 2.162 2.548-.029q.008 0 .015.003m2.957-6.497-.367 4.137h2.32l-.797-2.978zm-.675 4.137.391-4.422-.71-.712-1.185 2.056 1.035.728a.155.155 0 0 1-.087.281l-1.459.016 1.213 2.053zm.475-5.368.12-1.352-.69 1.198zM7.975 17.565l-.124 1.393.713-1.236z" clip-rule="evenodd"/></svg>
